X:1
T: The Alderman's Hat
N:
C:
S:
A:
O:
R:
M:4/4
K:Am
I:speed 200
%W: A1
% voice 1 (1 lines, 23 notes)
K:Am
M:4/4
L:1/16
E4 |A4 c8 A4 |^G4 e8 E4 |A4 c8 A4 |^G4 B8 E4 |A4 c8 A4 |^G4 a8 d4 |c8 B8 |A12 E4 |
%W: A2
% voice 1 (1 lines, 22 notes)
A4 c8 A4 |^G4 e8 E4 |A4 c8 A4 |^G4 B8 E4 |A4 c8 A4 |^G4 a8 d4 |c8 B8 |A12 e4 |
%W: B1
% voice 1 (1 lines, 23 notes)
e4 a8 e4 |a4 c'8 e4 |d4 g8 d4 |g4 b8 d4 |c4 f8 e2 d2 |e4 a8 d4 |c8 B8 |A12 e4 |
%W:  B2
% voice 1 (1 lines, 22 notes)
e4 a8 e4 |a4 c'8 e4 |d4 g8 d4 |g4 b8 d4 |c4 f8 e2 d2 |e4 a8 d4 |c8 B8 |A12 ||
